X: 31
M:2/4
L:1/16
K:A
vcB"^Segno"|\
vA2A,2C2E2 | A3B cABc | A2A,2C2E2 | B,2AB cdBc |
vAc((3efg) aece | faeg afec | Ac((3efg) aefe | dcBA GABG |
afec BdcB "^Segno""_D.S."|]


